X: 3400
T: OLD JOWLER
%R: jig
B: James Kerr "Merry Melodies" v.3 p.44 #400
Z: 2016 John Chambers <jc:trillian.mit.edu>
M: 6/8
L: 1/8
K: D
A |\
d2d B2G | F2G A2=c | B2d ^ceg | f3- f2A |\
d2d f2d | B2B e2d | c2c BAB | A3- A2A |\
e2c A2A | f2d A2A | c2d g2f |
(f3 e2)A |\
A^GA Bcd | efg afd | B2e d2c | d3- d2 |]\
(D/F/) |\
A3 A3 | Ad2- d2A | AFA AFA | Ad2- dAc |\
e3 e3 | ea2- a2e |
ece ece | ea2- a2a |\
fdd d2f | ecA A2a | fdd def | ecA A2A |\
dff dff | dff afd | B2e d2c | d3- d2 |]

%%sep 1 1 500
%%sep 1 1 500

